X: 1370
T: The Ivy Leaf
R:Reel
N:1st Setting
N:Collected by J. O'Neill
B:O'Neill's 1370
Z:Transcribed by Trish O'Neil
M:C|
L:1/8
K:A
A2(ed) cdec|A2(ec) dBGB|A2ed cdef|1{a}gfge dBGB:|2gedB cA"H"A2||
(ea)ag (ed)ef|{a}gfge dBGB|eaag edez|EEE(D E)(FG)B|
(ea)ag (ed)ef|{a}gfge dBGB|(Ac)(Bd) (ce)(df)|(eg)(fa) ged"D.C."B|]


